assets/images/members/terra-quantum/TerraQuantum_logo_black.svg

<svg width="388" height="373" viewBox="0 0 388 373" fill="none" xmlns="http://www.w3.org/2000/svg">
<path d="M384.62 150.748C375.016 102.18 350.688 62.7168 310.167 34.3782C267.604 4.61262 219.786 -5.10613 168.583 2.45116C135.458 7.33658 106.958 22.5293 81.5208 43.8262C80.0781 45.0345 50.4219 73.8053 51.1562 76.8991C83.6094 37.3105 129.641 14.847 139.531 15.0657C133.328 22.7793 128.698 31.1126 125.089 40.071C116.302 61.8991 112.672 84.6855 112.057 108.061L111.812 115.816C107.151 116.602 103.594 120.649 103.594 125.535C103.594 130.128 106.734 133.972 110.979 135.076L110.786 138.602C111.109 150.331 111.568 162.061 111.943 173.79C112.021 176.383 111.953 178.977 111.953 181.79C102.203 178.868 94.7552 174.41 89.4323 169.404L87.3073 167.389V166.712H103.594V160.899H80.4688L77.9375 158.498C65.2552 145.602 54.4948 131.43 48.6094 114.107C47.1771 109.878 46.5156 105.311 46.0365 100.847C45.1771 92.8001 49.6094 87.7741 56.4062 84.498C58.3073 83.5866 60.4323 83.1178 62.4792 82.5293C70.0521 80.3574 77.8281 80.9147 85.5573 80.8991C89.25 80.8939 99.3802 82.8001 103.052 81.972C96.4635 80.5033 83.4792 77.571 76.8646 77.2637C68.8802 76.8939 60.9167 77.6855 53.3385 80.7585C44.9583 84.1595 40.9583 90.597 40.4688 99.321C40.2917 102.472 40.6719 105.712 41.25 108.831C43.0625 118.654 46.6146 127.899 52.2969 136.097C57.4479 143.54 63.25 150.529 68.7135 157.753C68.7135 157.753 69.4792 158.805 71.3958 160.899H63.9948V166.712H77.151C78.0938 167.607 79.1406 168.581 80.2812 169.618V209.034H87.3073V175.769C87.599 176.008 87.8646 176.243 88.1615 176.493C96.5365 181.144 104.344 185.482 112.531 190.029C113.734 198.352 114.958 206.826 116.208 215.493C116.339 216.394 116.406 217.186 116.635 218.446C117.135 221.909 117.641 225.404 118.151 228.941C118.151 228.941 118.203 229.3 118.307 229.946C115.641 231.68 113.557 234.118 112.068 237.258C110.568 240.415 109.823 244.04 109.823 248.144C109.823 252.243 110.557 255.837 112.031 258.909C113.5 261.988 115.562 264.363 118.219 266.045C120.87 267.732 123.958 268.571 127.479 268.571C127.703 268.571 127.906 268.545 128.125 268.54C128.208 268.774 128.292 269.014 128.375 269.253C133.104 281.222 137.693 292.837 142.469 304.92C129.786 312.462 117.141 319.8 102.781 323.566C100.484 324.17 98.0625 324.581 95.7031 324.55C86.9792 324.451 81.4896 320.196 80.0469 311.597C79.1823 306.425 79.0885 300.982 79.5833 295.753C80.1563 289.738 81.7656 283.821 82.9271 277.857C80.1198 282.706 77.8021 287.717 76.1562 292.941C74.4427 298.404 73.375 304.071 71.9271 310.055C52.4271 290.034 41.75 275.019 39.1146 265.639C42.8698 263.644 45.8802 260.727 48.1354 256.857C50.8385 252.206 52.1927 246.54 52.1927 239.863C52.1927 234.024 51.1406 228.951 49.0417 224.639C46.9375 220.331 43.9271 217.014 40.0104 214.701C36.0938 212.389 31.4583 211.232 26.099 211.232C20.7865 211.232 16.1615 212.389 12.224 214.701C8.28125 217.014 5.26042 220.331 3.15625 224.639C1.05208 228.951 0 234.05 0 239.941C0 245.779 1.06771 250.852 3.19271 255.165C5.32292 259.477 8.34375 262.8 12.2604 265.139C16.1771 267.482 20.7865 268.649 26.099 268.649C26.9323 268.649 27.6146 268.633 28.151 268.607C43.5208 289.883 60.3802 309.899 79.9219 326.675C94.5365 339.227 109.839 350.795 127.734 358.498C155.271 370.347 184.125 374.196 213.818 372.675C237.25 371.477 259.766 366.175 280.797 355.613C326.807 332.519 358.453 296.441 376.573 248.383C382.531 232.581 386.224 216.18 387.479 199.352C388.698 183.071 387.807 166.847 384.62 150.748ZM13.0469 256.269C9.92187 252.43 8.35938 246.962 8.35938 239.863C8.35938 232.816 9.90625 227.389 13.0104 223.576C16.1094 219.764 20.474 217.857 26.099 217.857C31.7188 217.857 36.0938 219.764 39.224 223.576C42.349 227.389 43.9167 232.816 43.9167 239.863C43.9167 246.962 42.349 252.43 39.224 256.269C36.0938 260.107 31.7188 262.024 26.099 262.024C20.526 262.024 16.1771 260.107 13.0469 256.269ZM125.922 234.165C126.958 233.868 128.078 233.706 129.292 233.706C132.922 233.706 135.719 234.946 137.688 237.415C139.661 239.889 140.646 243.409 140.646 247.988C140.646 252.508 139.661 256.019 137.688 258.514C136.37 260.191 134.677 261.29 132.63 261.842L125.922 234.165ZM120.896 258.555C118.875 256.081 117.865 252.613 117.865 248.144C117.865 244.383 118.573 241.311 119.974 238.915C121.203 244.837 123.12 252.909 125.901 261.805C123.891 261.248 122.219 260.17 120.896 258.555ZM96.7865 331.732C105.125 329.227 113.688 327.29 121.729 324.045C129.813 320.785 137.375 316.227 145.875 311.878C147.625 315.04 149.281 318.321 151.203 321.436C156.943 330.722 162.323 340.285 168.75 349.081C173.255 355.248 179.245 360.337 184.792 366.133C162.495 368.321 115.755 349.508 96.7865 331.732ZM373.255 247.165C366.458 229.133 355.49 216.321 342.417 205.186C329.813 194.446 310.427 183.123 294.755 177.316C301.208 181.8 313.146 188.93 319.536 193.503C331.526 202.071 342.641 211.649 352.344 222.774C358.177 229.462 362.974 236.779 365.599 245.404C368.516 254.998 366.219 263.363 359.672 270.602C351.104 280.081 339.797 283.873 327.505 284.675C302.104 286.326 277.505 282.675 254.026 272.477C253.604 272.295 245.849 269.514 243.682 269.514C255.13 276.227 273.021 283.045 284.375 285.222C300.932 288.389 317.531 290.316 334.432 288.107C342.286 287.076 349.229 283.936 356.141 280.139C353.385 291.868 327.766 319.675 309.667 332.618C283.089 351.618 253.594 362.868 219.76 366.837C221.365 364.404 222.281 363.014 223.198 361.623C230.099 351.149 233.297 339.337 235.49 327.196C235.609 326.55 235.719 325.93 235.859 325.331C240.625 324.639 244.292 320.54 244.292 315.576C244.292 311.165 241.396 307.425 237.396 306.17C237.37 305.29 237.26 304.561 237.01 304.253V286.196C236.698 286.165 236.391 286.139 236.083 286.113C235.208 292.066 234.339 298.019 233.385 304.503C233.047 304.753 233.26 305.217 233.589 305.753C228.536 306.18 224.573 310.415 224.573 315.576C224.573 319.878 227.323 323.524 231.156 324.873C230.958 325.222 230.792 325.576 230.688 325.946C227.661 336.732 224.755 347.555 218.974 357.331C213.87 365.951 207.911 369.363 195.854 364.956C187.641 361.956 181.078 356.472 175.25 350.102C164.333 338.175 155.88 324.66 149.49 309.607C169.745 294.665 194.057 276.529 215.104 260.988C215.667 262.602 216.495 263.977 217.589 265.102C219.849 267.415 223.031 268.571 227.13 268.571C229.339 268.571 231.307 268.284 233.042 267.706V261.238C231.625 261.659 230.229 261.868 228.865 261.868C226.76 261.868 225.12 261.3 223.938 260.17C222.812 259.097 222.24 257.274 222.182 254.748C242.135 234.498 248.958 220.618 248.958 220.618L222.161 247.795V234.42H233.12V228.264H222.161V215.566L214.198 218.326V228.264H206.474V234.42H214.198V254.519L197.25 267.165V243.253C197.25 232.633 192.495 227.321 182.984 227.321C179.932 227.321 177.214 227.988 174.823 229.331C172.432 230.67 170.604 232.607 169.344 235.128L168.635 228.264H161.224C161.641 231.576 161.854 235.316 161.854 239.467V268.019H169.74V245.383C169.74 241.863 170.75 239.045 172.771 236.941C174.797 234.842 177.49 233.784 180.854 233.784C183.797 233.784 185.937 234.576 187.281 236.154C188.62 237.732 189.286 240.253 189.286 243.727V268.019H196.104L193.885 269.675C178.036 280.857 162.802 291.602 147.016 302.738C145.661 300.18 144.516 298.482 143.823 296.623C140.927 288.857 138.063 281.087 135.396 273.243L133.974 267.378C134.49 267.17 135 266.946 135.484 266.68C137.771 265.415 139.49 263.602 140.646 261.238V268.019H148.531V228.264H140.646V234.732C139.438 232.368 137.703 230.54 135.443 229.253C133.182 227.962 130.526 227.321 127.479 227.321C126.391 227.321 125.349 227.441 124.333 227.618L123.854 225.639C122.161 215.279 119.505 203.352 120.099 191.826L121.021 191.805C121.021 191.847 121.026 191.889 121.026 191.93C121.026 197.383 122.583 201.675 125.688 204.811C128.797 207.941 133.078 209.508 138.526 209.508C140.917 209.508 143.292 209.113 145.656 208.326C148.021 207.534 149.969 206.467 151.5 205.113L149.406 200.243C146.161 202.816 142.583 204.097 138.661 204.097C131.635 204.097 128.01 200.107 127.781 192.133H152.109V190.982C152.109 185.706 150.792 181.587 148.156 178.613C145.521 175.633 141.906 174.149 137.312 174.149C134.156 174.149 131.344 174.894 128.865 176.378C127.026 177.482 125.5 178.92 124.271 180.691C125.99 181.326 127.964 181.873 130.115 182.722C130.432 182.284 130.781 181.878 131.161 181.519C132.786 179.988 134.88 179.217 137.448 179.217C139.969 179.217 141.974 179.972 143.464 181.482C144.948 182.993 145.828 185.191 146.094 188.076H132.609C127.964 187.274 123.354 186.014 118.938 184.816C118.365 176.774 117.62 169.113 117.333 161.43C117.042 153.691 117.234 145.936 117.151 138.191C117.141 136.883 117.234 135.675 117.505 134.524C120.932 132.977 123.318 129.54 123.318 125.535C123.318 121.873 121.318 118.686 118.354 116.982C118.302 115.337 118.307 113.576 118.411 111.696C119.828 86.5137 122.708 61.7324 133.016 38.3835C136.703 30.0345 141.078 22.1022 147.542 15.5241C154.193 8.75324 160.057 7.77929 168.458 12.097C175.276 15.597 180.609 20.8991 184.719 27.2116C189.083 33.9043 192.844 40.9876 196.833 47.9251C198.214 50.3262 203.188 61.4095 205.339 65.3939C204.469 49.3678 189.073 21.5657 172.068 6.44074C207.635 -3.12696 275.349 12.1907 309.448 39.123C307.682 39.6803 306.24 40.3887 304.734 40.571C290.359 42.2689 277.724 48.5449 265.354 55.4928C251.078 63.5085 238.12 73.4355 225.995 84.3001C212.089 96.7637 198.88 110.008 185.385 122.941C184.448 123.842 178.958 130.857 178.776 132.795C180.26 131.675 186.505 124.654 187.969 123.508C189.651 122.191 191.318 120.852 192.964 119.498C208.62 106.597 224.047 93.4043 239.99 80.873C252.797 70.8053 266.396 61.7897 281.062 54.571C289.724 50.3053 298.781 47.2793 308.568 46.6907C317.828 46.1335 323.063 49.7793 325.74 58.6751C327.839 65.6543 326.464 72.5293 325.208 79.2949C323.953 86.0553 321.698 92.6335 320.01 98.8262C319.818 99.5501 319.693 100.154 319.589 100.712C319.276 100.686 318.964 100.665 318.651 100.665C313.203 100.665 308.786 105.081 308.786 110.535C308.786 113.17 309.828 115.561 311.516 117.331C304.823 132.581 291.396 154.55 283.938 168.962C293.016 159.264 304.974 139.321 311.375 127.816C312.802 125.248 314.01 122.55 315.562 120.066C315.594 120.024 315.615 119.972 315.646 119.93C316.594 120.232 317.599 120.399 318.651 120.399C324.094 120.399 328.51 115.982 328.51 110.535C328.51 107.18 326.839 104.222 324.281 102.441C326.443 95.5189 328.932 88.8105 330.562 81.8991C332.198 74.9564 332.958 67.8053 334.089 60.8314C351.359 73.2064 373.953 115.41 380.87 149.701C387.432 182.238 384.797 214.18 373.255 247.165Z" fill="black"/>
<path d="M64.0938 252.639C64.0938 263.264 68.8802 268.571 78.4427 268.571C81.2292 268.571 83.724 267.951 85.9323 266.717C88.1406 265.482 89.875 263.706 91.1354 261.394V268.019H98.8646V228.264H90.901V250.587C90.901 254.061 89.9167 256.847 87.9427 258.951C85.974 261.05 83.3594 262.102 80.099 262.102C77.3698 262.102 75.3333 261.326 73.9896 259.774C72.651 258.227 71.9792 255.821 71.9792 252.561V228.264H64.0938V252.639Z" fill="black"/>
<path d="M273.406 250.587C273.406 254.061 272.417 256.847 270.448 258.951C268.479 261.05 265.865 262.107 262.604 262.107C259.87 262.107 257.833 261.326 256.495 259.774C255.156 258.227 254.484 255.821 254.484 252.561V228.269H246.599V252.639C246.599 263.264 251.38 268.571 260.948 268.571C263.734 268.571 266.229 267.951 268.438 266.717C270.646 265.482 272.38 263.706 273.641 261.394V268.019H281.365V228.264H273.406V250.587Z" fill="black"/>
<path d="M294.693 239.467V268.019H302.578V245.54C302.578 241.909 303.469 239.045 305.255 236.941C307.042 234.842 309.458 233.785 312.51 233.785C315.135 233.785 317.042 234.576 318.224 236.154C319.406 237.732 320 240.227 320 243.644V268.019H327.958V245.54C327.958 241.909 328.839 239.045 330.599 236.941C332.365 234.842 334.766 233.785 337.812 233.785C340.443 233.785 342.349 234.576 343.531 236.154C344.714 237.732 345.302 240.227 345.302 243.644V268.019H353.266V243.253C353.266 232.633 348.854 227.321 340.021 227.321C337.078 227.321 334.438 228.003 332.099 229.373C329.76 230.738 327.984 232.607 326.776 234.972C324.885 229.873 320.865 227.321 314.714 227.321C311.823 227.321 309.302 227.977 307.146 229.29C304.99 230.607 303.333 232.472 302.182 234.894L301.469 228.264H294.062C294.479 231.576 294.693 235.316 294.693 239.467Z" fill="black"/>
<path d="M182.724 175.941C180.833 177.133 179.432 178.857 178.531 181.113L177.922 174.962H171.573C171.932 177.8 172.115 180.998 172.115 184.561V209.035H178.87V190.035C178.87 187.196 179.646 184.842 181.203 182.972C182.755 181.102 185.089 180.165 188.193 180.165C189.635 180.165 190.969 180.394 192.182 180.842L192.318 174.623C191.193 174.305 190.109 174.149 189.073 174.149C186.729 174.149 184.615 174.748 182.724 175.941Z" fill="black"/>
<path d="M220.292 175.941C218.401 177.133 217.005 178.857 216.104 181.113L215.495 174.962H209.141C209.505 177.8 209.682 180.998 209.682 184.561V209.035H216.438V190.035C216.438 187.196 217.219 184.842 218.771 182.972C220.323 181.102 222.656 180.165 225.766 180.165C227.208 180.165 228.536 180.394 229.75 180.842L229.885 174.623C228.76 174.305 227.682 174.149 226.646 174.149C224.302 174.149 222.182 174.748 220.292 175.941Z" fill="black"/>
<path d="M253.099 207.342C255.375 208.784 258.021 209.508 261.042 209.508C263.651 209.508 265.938 208.967 267.896 207.883C269.859 206.805 271.333 205.248 272.323 203.222V209.035H279.083V174.962H272.323V180.503C271.286 178.477 269.802 176.909 267.865 175.805C265.927 174.701 263.651 174.149 261.042 174.149C258.109 174.149 255.5 174.894 253.203 176.378C250.906 177.868 249.115 179.962 247.828 182.665C246.547 185.373 245.901 188.482 245.901 191.998C245.901 195.514 246.531 198.592 247.797 201.227C249.057 203.863 250.823 205.904 253.099 207.342ZM255.396 182.904C257.13 180.717 259.531 179.628 262.594 179.628C265.703 179.628 268.099 180.686 269.792 182.8C271.479 184.92 272.323 187.941 272.323 191.863C272.323 195.738 271.479 198.748 269.792 200.889C268.099 203.029 265.724 204.097 262.661 204.097C259.552 204.097 257.13 203.04 255.396 200.92C253.661 198.805 252.797 195.831 252.797 191.998C252.797 188.123 253.661 185.092 255.396 182.904Z" fill="black"/>
</svg>

<svg xmlns="http://www.w3.org/2000/svg" width="388" height="373" fill="none" viewBox="0 0 388 373"><path fill="#000" d="M384.62 150.748c-9.604-48.568-33.932-88.031-74.453-116.37C267.604 4.613 219.786-5.106 168.583 2.451c-33.125 4.886-61.625 20.078-87.062 41.375-1.443 1.209-31.1 29.98-30.365 33.073 32.453-39.588 78.485-62.052 88.375-61.833-6.203 7.713-10.833 16.047-14.442 25.005-8.787 21.828-12.417 44.615-13.032 67.99l-.245 7.755c-4.661.786-8.218 4.833-8.218 9.719 0 4.593 3.14 8.437 7.385 9.541l-.193 3.526c.323 11.729.782 23.459 1.157 35.188.078 2.593.01 5.187.01 8-9.75-2.922-17.198-7.38-22.52-12.386l-2.126-2.015v-.677h16.287v-5.813H80.469l-2.531-2.401c-12.683-12.896-23.443-27.068-29.329-44.391-1.432-4.229-2.093-8.796-2.573-13.26-.859-8.047 3.573-13.073 10.37-16.349 1.901-.911 4.026-1.38 6.073-1.969 7.573-2.172 15.35-1.614 23.078-1.63 3.693-.005 13.823 1.901 17.495 1.073-6.589-1.469-19.573-4.401-26.187-4.708-7.985-.37-15.948.422-23.526 3.495-8.38 3.4-12.38 9.838-12.87 18.562-.177 3.151.203 6.391.781 9.51 1.813 9.823 5.365 19.068 11.047 27.266 5.15 7.443 10.953 14.432 16.417 21.656 0 0 .765 1.052 2.682 3.146h-7.401v5.813H77.15c.943.895 1.99 1.869 3.13 2.906v39.416h7.026v-33.265c.292.239.558.474.855.724l24.369 13.536 3.677 25.464c.131.901.198 1.693.427 2.953l1.516 10.495s.052.359.156 1.005c-2.666 1.734-4.75 4.172-6.239 7.312-1.5 3.157-2.245 6.782-2.245 10.886 0 4.099.734 7.693 2.208 10.765 1.469 3.079 3.531 5.454 6.188 7.136 2.651 1.687 5.739 2.526 9.26 2.526.224 0 .427-.026.646-.031l.25.713c4.729 11.969 9.318 23.584 14.094 35.667-12.683 7.542-25.328 14.88-39.688 18.646-2.297.604-4.719 1.015-7.078.984-8.724-.099-14.213-4.354-15.656-12.953-.865-5.172-.959-10.615-.464-15.844.573-6.015 2.183-11.932 3.344-17.896-2.807 4.849-5.125 9.86-6.77 15.084-1.714 5.463-2.782 11.13-4.23 17.114-19.5-20.021-30.177-35.036-32.812-44.416 3.755-1.995 6.765-4.912 9.02-8.782q4.057-6.978 4.058-16.994-.001-8.757-3.151-15.224c-2.105-4.308-5.115-7.625-9.032-9.938q-5.873-3.469-13.911-3.469-7.968 0-13.875 3.469c-3.943 2.313-6.964 5.63-9.068 9.938Q0 231.106 0 239.941c0 5.838 1.068 10.911 3.193 15.224q3.193 6.467 9.067 9.974c3.917 2.343 8.527 3.51 13.839 3.51q1.249-.002 2.052-.042c15.37 21.276 32.23 41.292 51.77 58.068 14.615 12.552 29.918 24.12 47.813 31.823 27.537 11.849 56.391 15.698 86.084 14.177 23.432-1.198 45.948-6.5 66.979-17.062 46.01-23.094 77.656-59.172 95.776-107.23 5.958-15.802 9.651-32.203 10.906-49.031 1.219-16.281.328-32.505-2.859-48.604M13.047 256.269q-4.688-5.758-4.688-16.406c0-7.047 1.547-12.474 4.651-16.287q4.65-5.719 13.089-5.719 8.43 0 13.125 5.719c3.125 3.813 4.693 9.24 4.693 16.287 0 7.099-1.568 12.567-4.693 16.406q-4.695 5.756-13.125 5.755-8.358.001-13.052-5.755m112.875-22.104a12.2 12.2 0 0 1 3.37-.459c3.63 0 6.427 1.24 8.396 3.709 1.973 2.474 2.958 5.994 2.958 10.573q0 6.782-2.958 10.526c-1.318 1.677-3.011 2.776-5.058 3.328zm-5.026 24.39q-3.031-3.71-3.031-10.411c0-3.761.708-6.833 2.109-9.229a244 244 0 0 0 5.927 22.89c-2.01-.557-3.682-1.635-5.005-3.25m-24.11 73.177c8.339-2.505 16.902-4.442 24.943-7.687 8.084-3.26 15.646-7.818 24.146-12.167 1.75 3.162 3.406 6.443 5.328 9.558 5.74 9.286 11.12 18.849 17.547 27.645 4.505 6.167 10.495 11.256 16.042 17.052-22.297 2.188-69.037-16.625-88.005-34.401m276.469-84.567c-6.797-18.032-17.765-30.844-30.838-41.979-12.604-10.74-31.99-22.063-47.662-27.87 6.453 4.484 18.391 11.614 24.781 16.187 11.99 8.568 23.105 18.146 32.808 29.271 5.833 6.688 10.63 14.005 13.255 22.63 2.917 9.594.62 17.959-5.927 25.198-8.568 9.479-19.875 13.271-32.167 14.073-25.401 1.651-50-2-73.479-12.198-.422-.182-8.177-2.963-10.344-2.963 11.448 6.713 29.339 13.531 40.693 15.708 16.557 3.167 33.156 5.094 50.057 2.885 7.854-1.031 14.797-4.171 21.709-7.968-2.756 11.729-28.375 39.536-46.474 52.479-26.578 19-56.073 30.25-89.907 34.219l3.438-5.214c6.901-10.474 10.099-22.286 12.292-34.427.119-.646.229-1.266.369-1.865 4.766-.692 8.433-4.791 8.433-9.755a9.86 9.86 0 0 0-6.896-9.406c-.026-.88-.136-1.609-.386-1.917v-18.057a63 63 0 0 0-.927-.083c-.875 5.953-1.744 11.906-2.698 18.39-.338.25-.125.714.204 1.25a9.857 9.857 0 0 0-9.016 9.823 9.85 9.85 0 0 0 6.583 9.297 4.9 4.9 0 0 0-.468 1.073c-3.027 10.786-5.933 21.609-11.714 31.385-5.104 8.62-11.063 12.032-23.12 7.625-8.213-3-14.776-8.484-20.604-14.854-10.917-11.927-19.37-25.442-25.76-40.495 20.255-14.942 44.567-33.078 65.614-48.619.563 1.614 1.391 2.989 2.485 4.114q3.391 3.47 9.541 3.469c2.209 0 4.177-.287 5.912-.865v-6.468c-1.417.421-2.813.63-4.177.63q-3.156-.001-4.927-1.698c-1.126-1.073-1.698-2.896-1.756-5.422 19.953-20.25 26.776-34.13 26.776-34.13l-26.797 27.177V234.42h10.959v-6.156h-10.959v-12.698l-7.963 2.76v9.938h-7.724v6.156h7.724v20.099l-16.948 12.646v-23.912q0-15.931-14.266-15.932c-3.052 0-5.77.667-8.161 2.01-2.391 1.339-4.219 3.276-5.479 5.797l-.709-6.864h-7.411c.417 3.312.63 7.052.63 11.203v28.552h7.886v-22.636c0-3.52 1.01-6.338 3.031-8.442 2.026-2.099 4.719-3.157 8.083-3.157q4.413.001 6.427 2.37c1.339 1.578 2.005 4.099 2.005 7.573v24.292h6.818l-2.219 1.656c-15.849 11.182-31.083 21.927-46.869 33.063-1.355-2.558-2.5-4.256-3.193-6.115-2.896-7.766-5.76-15.536-8.427-23.38l-1.422-5.865a14 14 0 0 0 1.51-.698q3.43-1.897 5.162-5.442v6.781h7.885v-39.755h-7.885v6.468q-1.812-3.547-5.203-5.479c-2.261-1.291-4.917-1.932-7.964-1.932-1.088 0-2.13.12-3.146.297l-.479-1.979c-1.693-10.36-4.349-22.287-3.755-33.813l.922-.021c0 .042.005.084.005.125 0 5.453 1.557 9.745 4.662 12.881q4.665 4.696 12.838 4.697 3.585 0 7.13-1.182c2.365-.792 4.313-1.859 5.844-3.213l-2.094-4.87c-3.245 2.573-6.823 3.854-10.745 3.854q-10.538-.001-10.88-11.964h24.328v-1.151c0-5.276-1.317-9.395-3.953-12.369-2.635-2.98-6.25-4.464-10.844-4.464-3.156 0-5.968.745-8.447 2.229a14.8 14.8 0 0 0-4.594 4.313c1.719.635 3.693 1.182 5.844 2.031a8.5 8.5 0 0 1 1.046-1.203c1.625-1.531 3.719-2.302 6.287-2.302q3.781 0 6.016 2.265c1.484 1.511 2.364 3.709 2.63 6.594h-13.485c-4.645-.802-9.255-2.062-13.671-3.26-.573-8.042-1.318-15.703-1.605-23.386-.291-7.739-.099-15.494-.182-23.239-.01-1.308.083-2.516.354-3.667 3.427-1.547 5.813-4.984 5.813-8.989 0-3.662-2-6.849-4.964-8.553a61 61 0 0 1 .057-5.286c1.417-25.182 4.297-49.964 14.605-73.312 3.687-8.35 8.062-16.282 14.526-22.86 6.651-6.77 12.515-7.745 20.916-3.427 6.818 3.5 12.151 8.802 16.261 15.115 4.364 6.692 8.125 13.776 12.114 20.713 1.381 2.401 6.355 13.485 8.506 17.469-.87-16.026-16.266-43.828-33.271-58.953 35.567-9.568 103.281 5.75 137.38 32.682-1.766.557-3.208 1.266-4.714 1.448-14.375 1.698-27.01 7.974-39.38 14.922-14.276 8.015-27.234 17.943-39.359 28.807-13.906 12.464-27.115 25.708-40.61 38.641-.937.901-6.427 7.916-6.609 9.854 1.484-1.12 7.729-8.141 9.193-9.287a266 266 0 0 0 4.995-4.01c15.656-12.901 31.083-26.094 47.026-38.625 12.807-10.068 26.406-19.083 41.072-26.302 8.662-4.266 17.719-7.292 27.506-7.88 9.26-.558 14.495 3.088 17.172 11.984 2.099 6.98.724 13.854-.532 20.62-1.255 6.76-3.51 13.338-5.198 19.531a25 25 0 0 0-.421 1.886 11 11 0 0 0-.938-.047c-5.448 0-9.865 4.416-9.865 9.87a9.82 9.82 0 0 0 2.73 6.796c-6.693 15.25-20.12 37.219-27.578 51.631 9.078-9.698 21.036-29.641 27.437-41.146 1.427-2.568 2.635-5.266 4.187-7.75.032-.042.053-.094.084-.136a9.9 9.9 0 0 0 3.005.469c5.443 0 9.859-4.417 9.859-9.864a9.84 9.84 0 0 0-4.229-8.094c2.162-6.922 4.651-13.63 6.281-20.542 1.636-6.943 2.396-14.094 3.527-21.068 17.27 12.375 39.864 54.579 46.781 88.87 6.562 32.537 3.927 64.479-7.615 97.464"/><path fill="#000" d="M64.094 252.639c0 10.625 4.786 15.932 14.349 15.932q4.178-.002 7.49-1.854 3.312-1.854 5.202-5.323v6.625h7.73v-39.755H90.9v22.323q.001 5.21-2.958 8.364-2.954 3.15-7.844 3.151-4.095 0-6.11-2.328-2.008-2.322-2.01-7.213v-24.297h-7.885zM273.406 250.587c0 3.474-.989 6.26-2.958 8.364-1.969 2.099-4.583 3.156-7.844 3.156-2.734 0-4.771-.781-6.109-2.333q-2.01-2.322-2.011-7.213v-24.292h-7.885v24.37c0 10.625 4.781 15.932 14.349 15.932q4.178-.002 7.49-1.854 3.312-1.854 5.203-5.323v6.625h7.724v-39.755h-7.959zM294.693 239.467v28.552h7.885V245.54q-.001-5.445 2.677-8.599c1.787-2.099 4.203-3.156 7.255-3.156q3.94.001 5.714 2.369 1.775 2.366 1.776 7.49v24.375h7.958V245.54q0-5.445 2.641-8.599c1.766-2.099 4.167-3.156 7.213-3.156q3.946.001 5.719 2.369 1.773 2.366 1.771 7.49v24.375h7.964v-24.766c0-10.62-4.412-15.932-13.245-15.932q-4.414-.001-7.922 2.052c-2.339 1.365-4.115 3.234-5.323 5.599q-2.836-7.65-12.062-7.651-4.335 0-7.568 1.969c-2.156 1.317-3.813 3.182-4.964 5.604l-.713-6.63h-7.407c.417 3.312.631 7.052.631 11.203M182.724 175.941c-1.891 1.192-3.292 2.916-4.193 5.172l-.609-6.151h-6.349q.54 4.256.542 9.599v24.474h6.755v-19q-.001-4.258 2.333-7.063c1.552-1.87 3.886-2.807 6.99-2.807 1.442 0 2.776.229 3.989.677l.136-6.219a12 12 0 0 0-3.245-.474q-3.514.001-6.349 1.792M220.292 175.941q-2.837 1.788-4.188 5.172l-.609-6.151h-6.354c.364 2.838.541 6.036.541 9.599v24.474h6.756v-19c0-2.839.781-5.193 2.333-7.063q2.329-2.806 6.995-2.807c1.442 0 2.77.229 3.984.677l.135-6.219a11.9 11.9 0 0 0-3.239-.474q-3.518.001-6.354 1.792M253.099 207.342q3.413 2.165 7.943 2.166 3.915 0 6.854-1.625c1.963-1.078 3.437-2.635 4.427-4.661v5.813h6.76v-34.073h-6.76v5.541q-1.554-3.04-4.458-4.698-2.908-1.656-6.823-1.656c-2.933 0-5.542.745-7.839 2.229q-3.445 2.234-5.375 6.287c-1.281 2.708-1.927 5.817-1.927 9.333q-.002 5.275 1.896 9.229c1.26 2.636 3.026 4.677 5.302 6.115m2.297-24.438c1.734-2.187 4.135-3.276 7.198-3.276 3.109 0 5.505 1.058 7.198 3.172q2.53 3.18 2.531 9.063 0 5.813-2.531 9.026-2.538 3.209-7.131 3.208-4.664.002-7.265-3.177-2.6-3.172-2.599-8.922-.002-5.812 2.599-9.094"/></svg>
